src/icons/icons_set_04/038-pin-contour.svg

<svg height="50" viewBox="0 0 50 50" width="50" xmlns="http://www.w3.org/2000/svg"><path d="m30.8209277 32.3803017c3.4918809-5.8253654 4.6569486-8.5174388 4.9427466-12.4628387.4664352-6.3947351-3.5956708-11.3785366-9.1573252-11.86829971-3.480792-.30678167-6.3973416.84126144-8.5238494 2.99027471-2.159246 2.200812-3.2945302 5.0136529-3.0502457 8.6509647.2793618 4.1603679 1.7216852 7.5798985 4.9144987 12.7561265 1.8650383 3.0228341 3.6944737 5.5798201 5.5682489 7.7294156 1.6366979-1.9739409 3.3659952-4.5518616 5.3059261-7.7956431zm-8.148571 16.3522751c-3.4091261-3.1612816-6.470233-7.1196432-9.5342523-12.0857727-3.82005271-6.1931158-5.70049229-10.6513536-6.08787223-16.4203726-.40322595-6.0038953 1.61994002-11.01659978 5.33369603-14.80179473 3.7672637-3.8072251 8.999535-5.86680705 14.9244868-5.3446079 9.9929788.87998857 17.2131402 9.7384111 16.4342075 20.41741853-.4025853 5.5576415-1.9595938 9.155356-6.0579279 15.9924391-3.3608131 5.6196603-6.2070723 9.5411456-9.4254305 12.3300641-.7167217.6210864-1.6308068.9673092-2.5791457.9768884l-.2475589.0025006c-1.0226057.0103294-2.0103304-.3714063-2.7602028-1.0667628z"/><path d="m18.0398521 17.5056619c-.3627437 3.9070934 1.8097969 6.5577728 4.117631 7.6271033 5.1215487 2.3631613 11.0097611-1.5754409 10.3156462-7.8161562-.3980377-3.6412378-3.6411623-6.4514306-7.4058536-6.3116102-3.7646912.1398204-6.7038954 2.9539517-7.0313451 6.4986938z"/></svg>

<?xml version="1.0" encoding="UTF-8"?>
<svg width="50px" height="50px" viewBox="0 0 50 50" version="1.1" xmlns="http://www.w3.org/2000/svg" xmlns:xlink="http://www.w3.org/1999/xlink">
    <!-- Generator: Sketch 52.4 (67378) - http://www.bohemiancoding.com/sketch -->
    <title>038-pin-contour</title>
    <desc>Created with Sketch.</desc>
    <g id="038-pin-contour" stroke="none" stroke-width="1" fill="none" fill-rule="evenodd">
        <g id="Group-Copy" transform="translate(11.000000, 4.000000)">
            <g id="050-pin">
                <g id="ICONSET-01">
                    <g id="050-pin"></g>
                </g>
            </g>
        </g>
        <path d="M30.8209277,32.3803017 C34.3128086,26.5549363 35.4778763,23.8628629 35.7636743,19.917463 C36.2301095,13.5227279 32.1680035,8.5389264 26.6063491,8.04916329 C23.1255571,7.74238162 20.2090075,8.89042473 18.0824997,11.039438 C15.9232537,13.24025 14.7879695,16.0530909 15.032254,19.6904027 C15.3116158,23.8507706 16.7539392,27.2703012 19.9467527,32.4465292 C21.811791,35.4693633 23.6412264,38.0263493 25.5150016,40.1759448 C27.1516995,38.2020039 28.8809968,35.6240832 30.8209277,32.3803017 Z M22.6723567,48.7325768 C19.2632306,45.5712952 16.2021237,41.6129336 13.1381044,36.6468041 C9.31805169,30.4536883 7.43761211,25.9954505 7.05023217,20.2264315 C6.64700622,14.2225362 8.67017219,9.20983172 12.3839282,5.42463677 C16.1511919,1.61741167 21.3834632,-0.442170281 27.308415,0.080028871 C37.3013938,0.960017437 44.5215552,9.81843997 43.7426225,20.4974474 C43.3400372,26.0550889 41.7830287,29.6528034 37.6846946,36.4898865 C34.3238815,42.1095468 31.4776223,46.0310321 28.2592641,48.8199506 C27.5425424,49.441037 26.6284573,49.7872598 25.6801184,49.796839 L25.4325595,49.7993396 C24.4099538,49.809669 23.4222291,49.4279333 22.6723567,48.7325768 Z" id="Shape" fill="#000000" fill-rule="nonzero"></path>
        <path d="M18.0398521,17.5056619 C17.6771084,21.4127553 19.849649,24.0634347 22.1574831,25.1327652 C27.2790318,27.4959265 33.1672442,23.5573243 32.4731293,17.316609 C32.0750916,13.6753712 28.831967,10.8651784 25.0672757,11.0049988 C21.3025845,11.1448192 18.3633803,13.9589505 18.0359306,17.5036926 L18.0398521,17.5056619 Z" id="Shape-path" fill="#000000" fill-rule="nonzero"></path>
    </g>
</svg>
